X: 39229
T: Tabby, The
R: reel
M: 4/4
K: Gmajor
F|G2ge dBEF|GBAF GABc|d2 (3Bcd edBG|ADFA c2BA|
G3B A3B|cBce dBGF|E2 ((3efg) dBGB|AGFA G2zF|
GBdg edBA|GEDE GABc|d2 (3Bcd edBG|ADFA c2BA|
GDDB ADDB|cBce dBGF|E2 ((3efg) dBGB|AGFA G2zA||
B2dB eBde|gd ((3efg) dBGB|ce3 dBGB|ADFA c2BA|
G3B A3B|cBce dBGF|E2 ((3efg) dBGB|AGFA G2zA|
B2dB eBde|gd ((3efg) dBGB|ce3 dBGB|ADFA c2BA|
GBdg bgdB|cBce dBGF|E2 ((3efg) dBGB|AGFA G2z||

